web/ui/src/components/workflow/workflow-viewer/svgs/tool/normal-hover.svg

<svg height="24" viewBox="0 0 24 24" width="24" xmlns="http://www.w3.org/2000/svg"><g fill="none" fill-rule="evenodd"><path d="m0 0h24v24h-24z" fill="#000" fill-rule="nonzero" opacity="0"/><path d="m4 0h12c2.209139 0 4 1.790861 4 4v12c0 2.209139-1.790861 4-4 4h-12c-2.209139 0-4-1.790861-4-4v-12c0-2.209139 1.790861-4 4-4zm.6 1h10.8c1.9882251 0 3.6 1.6117749 3.6 3.6v10.8c0 1.9882251-1.6117749 3.6-3.6 3.6h-10.8c-1.9882251 0-3.6-1.6117749-3.6-3.6v-10.8c0-1.9882251 1.6117749-3.6 3.6-3.6zm.08055556 10.8819444h1.71875c.9453125 0 1.71875.7734375 1.71875 1.71875v1.71875c0 .3151042-.2578125.5729167-.57291667.5729167s-.57291667-.2578125-.57291667-.5729167v-1.71875c0-.3151041-.2578125-.5729166-.57291666-.5729166h-1.71875c-.31510417 0-.57291667-.2578125-.57291667-.5729167s.2578125-.5729167.57291667-.5729167zm8.92013884 0h1.71875c.3151042 0 .5729167.2578125.5729167.5729167s-.2578125.5729167-.5729167.5729167h-1.71875c-.3151041 0-.5729166.2578125-.5729166.5729166v1.71875c0 .3151042-.2578125.5729167-.5729167.5729167s-.5729167-.2578125-.5729167-.5729167v-1.71875c0-.9453125.7734375-1.71875 1.71875-1.71875zm-1.1458333-7.77430551c.3151042 0 .5729167.2578125.5729167.57291667v1.71875c0 .31510416.2578125.57291666.5729166.57291666h1.71875c.3151042 0 .5729167.2578125.5729167.57291667s-.2578125.57291667-.5729167.57291667h-1.71875c-.9453125 0-1.71875-.7734375-1.71875-1.71875v-1.71875c0-.31510417.2578125-.57291667.5729167-.57291667zm-4.90972221 0c.31510417 0 .57291667.2578125.57291667.57291667v1.71875c0 .9453125-.7734375 1.71875-1.71875 1.71875h-1.71875c-.31510417 0-.57291667-.2578125-.57291667-.57291667s.2578125-.57291667.57291667-.57291667h1.71875c.31510416 0 .57291666-.2578125.57291666-.57291666v-1.71875c0-.31510417.2578125-.57291667.57291667-.57291667z" fill="#096dd9" transform="translate(2 2)"/></g></svg>

<?xml version="1.0" encoding="UTF-8"?>
<svg width="24px" height="24px" viewBox="0 0 24 24" version="1.1" xmlns="http://www.w3.org/2000/svg" xmlns:xlink="http://www.w3.org/1999/xlink">
    <title>缩小</title>
    <g id="页面-1" stroke="none" stroke-width="1" fill="none" fill-rule="evenodd">
        <g id="工作流程图备份" transform="translate(-1623.000000, -28.000000)">
            <g id="放大01备份-2" transform="translate(1623.000000, 28.000000)">
                <rect id="矩形" fill="#000000" fill-rule="nonzero" opacity="0" x="0" y="0" width="24" height="24"></rect>
                <g id="编组-9" transform="translate(2.000000, 2.000000)" fill="#096DD9">
                    <path d="M4,0 L16,0 C18.209139,-4.05812251e-16 20,1.790861 20,4 L20,16 C20,18.209139 18.209139,20 16,20 L4,20 C1.790861,20 2.705415e-16,18.209139 0,16 L0,4 C-2.705415e-16,1.790861 1.790861,4.05812251e-16 4,0 Z M4.6,1 L15.4,1 C17.3882251,1 19,2.6117749 19,4.6 L19,15.4 C19,17.3882251 17.3882251,19 15.4,19 L4.6,19 C2.6117749,19 1,17.3882251 1,15.4 L1,4.6 C1,2.6117749 2.6117749,1 4.6,1 Z M4.68055556,11.8819444 L6.39930556,11.8819444 C7.34461806,11.8819444 8.11805556,12.6553819 8.11805556,13.6006944 L8.11805556,15.3194444 C8.11805556,15.6345486 7.86024306,15.8923611 7.54513889,15.8923611 C7.23003472,15.8923611 6.97222222,15.6345486 6.97222222,15.3194444 L6.97222222,13.6006944 C6.97222222,13.2855903 6.71440972,13.0277778 6.39930556,13.0277778 L4.68055556,13.0277778 C4.36545139,13.0277778 4.10763889,12.7699653 4.10763889,12.4548611 C4.10763889,12.1397569 4.36545139,11.8819444 4.68055556,11.8819444 Z M13.6006944,11.8819444 L15.3194444,11.8819444 C15.6345486,11.8819444 15.8923611,12.1397569 15.8923611,12.4548611 C15.8923611,12.7699653 15.6345486,13.0277778 15.3194444,13.0277778 L13.6006944,13.0277778 C13.2855903,13.0277778 13.0277778,13.2855903 13.0277778,13.6006944 L13.0277778,15.3194444 C13.0277778,15.6345486 12.7699653,15.8923611 12.4548611,15.8923611 C12.1397569,15.8923611 11.8819444,15.6345486 11.8819444,15.3194444 L11.8819444,13.6006944 C11.8819444,12.6553819 12.6553819,11.8819444 13.6006944,11.8819444 Z M12.4548611,4.10763889 C12.7699653,4.10763889 13.0277778,4.36545139 13.0277778,4.68055556 L13.0277778,6.39930556 C13.0277778,6.71440972 13.2855903,6.97222222 13.6006944,6.97222222 L15.3194444,6.97222222 C15.6345486,6.97222222 15.8923611,7.23003472 15.8923611,7.54513889 C15.8923611,7.86024306 15.6345486,8.11805556 15.3194444,8.11805556 L13.6006944,8.11805556 C12.6553819,8.11805556 11.8819444,7.34461806 11.8819444,6.39930556 L11.8819444,4.68055556 C11.8819444,4.36545139 12.1397569,4.10763889 12.4548611,4.10763889 Z M7.54513889,4.10763889 C7.86024306,4.10763889 8.11805556,4.36545139 8.11805556,4.68055556 L8.11805556,6.39930556 C8.11805556,7.34461806 7.34461806,8.11805556 6.39930556,8.11805556 L4.68055556,8.11805556 C4.36545139,8.11805556 4.10763889,7.86024306 4.10763889,7.54513889 C4.10763889,7.23003472 4.36545139,6.97222222 4.68055556,6.97222222 L6.39930556,6.97222222 C6.71440972,6.97222222 6.97222222,6.71440972 6.97222222,6.39930556 L6.97222222,4.68055556 C6.97222222,4.36545139 7.23003472,4.10763889 7.54513889,4.10763889 Z" id="矩形-3"></path>
                </g>
            </g>
        </g>
    </g>
</svg>
